client/src/assets/img/file-svg.svg

<?xml version="1.0" encoding="iso-8859-1"?>
<!-- Generator: Adobe Illustrator 19.0.0, SVG Export Plug-In . SVG Version: 6.00 Build 0)  -->
<svg version="1.1" id="Layer_1" xmlns="http://www.w3.org/2000/svg" xmlns:xlink="http://www.w3.org/1999/xlink" x="0px" y="0px"
	 viewBox="0 0 512 512" style="enable-background:new 0 0 512 512;" xml:space="preserve">
<polygon style="fill:#F8F8F9;" points="345.6,0 51.2,0 51.2,512 460.8,512 460.8,115.2 "/>
<polygon style="fill:#EDEDED;" points="345.6,115.2 345.6,0 256,0 256,512 460.8,512 460.8,115.2 "/>
<rect x="51.2" y="230.4" style="fill:#EBAFD1;" width="409.6" height="204.8"/>
<rect x="256" y="230.4" style="fill:#E592BF;" width="204.8" height="204.8"/>
<g>
	<path style="fill:#F8F8F9;" d="M230.711,289.408l19.238,58.061l19.008-58.061h19.93L257.898,371.2h-15.898l-31.334-81.792
		L230.711,289.408L230.711,289.408z"/>
	<path style="fill:#F8F8F9;" d="M355.474,363.136c-6.221,5.76-13.403,8.64-21.542,8.64c-22.506,0-39.283-18.496-39.283-42.049
		c0-23.808,18.938-40.895,40.781-40.895c16.091,0,26.996,7.127,32.718,17.855l-14.054,10.598
		c-4.426-8.006-11.466-11.635-19.354-11.635c-11.633,0-20.966,10.349-20.966,24.769c0,13.74,8.854,24.538,21.772,24.538
		c7.375,0,14.016-3.418,19.931-10.254v-2.533h-15.899v-13.71h31.566v42.74h-15.667v-8.064H355.474z"/>
	<path style="fill:#F8F8F9;" d="M193.157,313.37c-6.81-5.13-16.09-7.834-21.773-7.834c-6.758,0-10.138,2.267-10.138,6.797
		c0,5.988,8.239,7.588,17.165,10.022c18.054,4.925,25.459,10.925,25.459,24.768c0,13.731-9.523,25-30.643,25
		c-13.44,0-24.881-3.562-34.906-10.139l8.293-16.474c7.172,4.89,16.211,9.563,26.958,9.563c6.682,0,10.022-2.035,10.022-6.106
		c0-4.486-5.249-6.966-11.924-8.755c-22.38-5.998-29.893-11.492-29.893-24.883c0-13.568,9.048-26.61,30.182-26.61
		c11.427,0,20.387,3.922,29.491,8.986L193.157,313.37z"/>
</g>
<g>
</g>
<g>
</g>
<g>
</g>
<g>
</g>
<g>
</g>
<g>
</g>
<g>
</g>
<g>
</g>
<g>
</g>
<g>
</g>
<g>
</g>
<g>
</g>
<g>
</g>
<g>
</g>
<g>
</g>
</svg>

<?xml version="1.0" encoding="UTF-8" standalone="no"?>
<!DOCTYPE svg PUBLIC "-//W3C//DTD SVG 1.1//EN" "http://www.w3.org/Graphics/SVG/1.1/DTD/svg11.dtd">
<!-- Created with Vectornator (http://vectornator.io/) -->
<svg height="100%" stroke-miterlimit="10" style="fill-rule:nonzero;clip-rule:evenodd;stroke-linecap:round;stroke-linejoin:round;" version="1.1" viewBox="0 0 512 512" width="100%" xml:space="preserve" xmlns="http://www.w3.org/2000/svg" xmlns:xlink="http://www.w3.org/1999/xlink">
<defs/>
<g id="Untitled">
<path d="M345.6 0L51.2 0L51.2 512L460.8 512L460.8 115.2L345.6 0Z" fill="#f8f8f9" fill-rule="nonzero" opacity="1" stroke="none"/>
<path d="M345.6 115.2L345.6 0L256 0L256 512L460.8 512L460.8 115.2L345.6 115.2Z" fill="#ededed" fill-rule="nonzero" opacity="1" stroke="none"/>
<path d="M51.2 230.4L460.8 230.4L460.8 230.4L460.8 435.2L460.8 435.2L51.2 435.2L51.2 435.2L51.2 230.4L51.2 230.4Z" fill="#82b8f3" fill-rule="nonzero" opacity="1" stroke="none"/>
<path d="M256 230.4L460.8 230.4L460.8 230.4L460.8 435.2L460.8 435.2L256 435.2L256 435.2L256 230.4L256 230.4Z" fill="#3887de" fill-rule="nonzero" opacity="1" stroke="none"/>
<g opacity="1">
<path d="M230.711 289.408L249.949 347.469L268.957 289.408L288.887 289.408L257.898 371.2L242 371.2L210.666 289.408L230.711 289.408L230.711 289.408Z" fill="#f8f8f9" fill-rule="nonzero" opacity="1" stroke="none"/>
<path d="M355.474 363.136C349.253 368.896 342.071 371.776 333.932 371.776C311.426 371.776 294.649 353.28 294.649 329.727C294.649 305.919 313.587 288.832 335.43 288.832C351.521 288.832 362.426 295.959 368.148 306.687L354.094 317.285C349.668 309.279 342.628 305.65 334.74 305.65C323.107 305.65 313.774 315.999 313.774 330.419C313.774 344.159 322.628 354.957 335.546 354.957C342.921 354.957 349.562 351.539 355.477 344.703L355.477 342.17L339.578 342.17L339.578 328.46L371.144 328.46L371.144 371.2L355.477 371.2L355.477 363.136L355.474 363.136Z" fill="#f8f8f9" fill-rule="nonzero" opacity="1" stroke="none"/>
<path d="M193.157 313.37C186.347 308.24 177.067 305.536 171.384 305.536C164.626 305.536 161.246 307.803 161.246 312.333C161.246 318.321 169.485 319.921 178.411 322.355C196.465 327.28 203.87 333.28 203.87 347.123C203.87 360.854 194.347 372.123 173.227 372.123C159.787 372.123 148.346 368.561 138.321 361.984L146.614 345.51C153.786 350.4 162.825 355.073 173.572 355.073C180.254 355.073 183.594 353.038 183.594 348.967C183.594 344.481 178.345 342.001 171.67 340.212C149.29 334.214 141.777 328.72 141.777 315.329C141.777 301.761 150.825 288.719 171.959 288.719C183.386 288.719 192.346 292.641 201.45 297.705L193.157 313.37Z" fill="#f8f8f9" fill-rule="nonzero" opacity="1" stroke="none"/>
</g>
</g>
</svg>
